X:1
T:Vagh'amorosi
T:Madalena Casulana
T:Source : Secondo libro de madrigali a quattro voci---Venetia---G.Scotto---1570. Editor : André Vierendeels (25/08/17).
T:Vagh'amorosi
T:©
T:©
T:©
T:©
T:©
T:©
C:Madalena Casulana
Z:©
%%score [ 1 2 3 4 ]
L:1/8
Q:1/4=120
M:4/4
K:F
V:1 treble nm="Soprano" snm="S"
V:2 treble nm="Alto" snm="A"
V:3 treble-8 nm="Tenor 1" snm="T 1"
V:4 treble-8 nm="Tenor 2" snm="T 2"
V:1
 G4 B2 G2 | B2 c2 dcBA | G2 GG G2 F2 | B2 c2 d4 | c4 z4 | z8 | ee f2 c2 d2 | _e2 d2 G3 A | %8
w: Vagh' a- mo-|ro- si'au- gel- * * *|* li, che so- vra|gli'ar- bu- scel-|li,||ri- no- va- te gl'an-|ti- chi vo- *|
 B2 c2 d4 | =B4 z2 d2 | B3 c d2 _e2 | d2 B2 f4 | d4 z4 | z2 f2 d3 e | f2 g2 f2 d2 | c4 d2 B2- | %16
w: * stri'a- mo-|ri, can-|ta- * * te|tra bei fio-|ri,,|can- ta- *|* te tra bei|fio- ri, gl'oc-|
 BB B2 _e2 c2 | c4 A2 B2 | B4 G4 | B4 c4 | d4 A2 B2- | B2 G2 G4 | G4 z2 c2 | A2 d2 d2 _e2 | %24
w: * ch'e le bion- de|chio- me, che|fur si|dol- ce|nod' a le|_ mie so-|me, e|di mia Clo- ri'a|
 d4 =B4 | z2 d2 f2 e2- | e2 d4 c2 | BA A3 G/F/ G2 | A8 | z4 f4 | c8- | c8 | c4 d4- | d4 D4 | E8 | %35
w: l'on- de,|in quest' a-|* ma- te|spon- * * * * *|de,|u-|di-||te l'ar-|* mo-|ni-|
 ^F4 z2 A2 | d4 c2 c2- | c2 =B2 c4- | c4 z2 e2 | f4 e2 c2 | c4 d2 e2- | ed d4 ^c2 | d2 A2 d4 | %43
w: a, che|puo sol' a|_ dol- cir|_ la|pe- na, la|pe- na mi-||a, che puo|
 c2 f4 d2 | e4 z4 | z4 e4 | f6 d2 | d8 | =B8 |] %49
w: sol' a dol-|cir|la|pe- na|mi-|a.|
V:2
 z8 | G4 B2 G2 | B2 c2 B3 A | GF _E2 D4 | z2 F2 F2 E2 | FG A4 G2 | cc c2 A2 A2 | B6 B,2 | %8
w: |Vagh' a- mo-|ro- si'au- gel- *|* * * li,|che so- vra|gli'ar- bu- scel- li,|ri- no- va- te gl'an-|ti- chi|
 D2 G4 ^F2 | G4 G,4- | G,4 G3 A | B2 G2 A2 D2 | B4 F2 G2 | F2 B2 z2 F2 | B3 G A2 B2 | A4 B2 G2- | %16
w: vo- stri'a- mo-|ri, can-||* te tra bei|fio- ri, can-|ta- te, can-|ta- te tra bei|fio- ri, gl'oc-|
 GG G2 G2 F2 |"^-natural" E4 F2 D2 | G4 B4 | G4 G4 | ^F2 F4 G2- | G2 E2 D4 | E4 z2 A2 | %23
w: * ch'e le bion- de|chio- me, che|fur si|dol- ce|nod' a le|_ mia so-|me, e|
 ^F2 A2 =B2 c2 | A4 G2 G2 | B4 A4 | z2 D2 F2 E2 | D2 C2 B,4 | A,2 A,2 F2 F2 | E4 A4 | z2 A4 F2- | %31
w: di moa Clo- ri'a|l'on- de, in|que- ste,|un quest' a-|ma- te spon-|de, a- ma- te|spon- de,|u- di-|
 F2 ED E4 | F4 A4- | A4 A,4 | ^C8 | D4 z2 ^F2 | A4 A2 A2- | A2 G2 G4 | z2 A2 c4- | c4 A4 | %40
w: |te l'ar-|* mo-|ni-|a, che|puo sol' a|_ dol- cir|la pe-|* na,|
 z2 E2 F2 E2 | A8 | ^F2 F2 A4 | A2 c4 =B2 | c8 | z8 | A4 B2 A2- | A2 G3 ^F/E/ F2 | G8 |] %49
w: la pe- na|mi-|a, che puo|sol' a dol-|cir||la pe- na|_ mi- * * *|a.|
V:3
 z4 g4 | _e2 c2 g2 d2 | _e4 d2 d2 | G2 g2 f2 g2 | a4 g4 | z8 | gg a2 f4 | g2 g4 d2 | g2 G2 A4 | %9
w: Vagh'|a- mo- ro- si'au-|gel- li, che|so- vra gli'ar- bu-|scel- li,||ri- no- va- te|gl'an- ti- chi|vostr' a- mo-|
 G4 z4 | z2 d2 B3 c | d2 _e2 d2 B2 | f4 B4- | B2 d2 GABc | d2 _e2 d2 B2 | f4 B2 _e2- | %16
w: ri,|can- ta- *|* te tra bei|fio- ri,|_ can- ta- * * *|* te tra bei|fio- ri, gl'oc-|
 e_e B2 c2 A2 | G4 F2 f2 | _e4 e4 | B4 G4 | A4 d2 G2 | d2 c3 =B/A/ B2 | c4 z2 e2 | d2 ^f2 g2 g2- | %24
w: * ch'e le bion- de|chio- me, che|fur si|dol- ce|nod' a le|mie so- * * *|me, e|di mia Clo- ri|
 g2 ^f2 g2 d2 |"^-natural" g2 f2 d2 e2 | f3 g a4 | f2 e2 f2 d2 | f2 e4 d2- | d^c/=B/ c2 d4 | %30
w: _ l'on- de, in|quest' a ma- te|spon- * *|de, in quest' a|ma- te spon-|* * * * de,|
 z4 z2 a2 | g8 | a4 ^f4- | f4 ^f4 | a8 | a4 z2 d2 |"^-natural" f4 f2 f2- | f2 d2 e2 e2 | f4 e4 | %39
w: u-|di-|te l'ar-|* mo-|ni-|a, che|puo sol' a|_ dol- cir la|pe- na,|
 z4 z2 e2 | f2 e2 a3 g | f4 e4 |"^-natural" z2 d2 f4 | f2 a4 g2 | g2 e2 f4 | d2 d4 ^c2 | d4 z2 A2 | %47
w: la|pe- na mi- *|* a,|che puo|sol' a dol-|cir la pe-|na mi- *|a, la|
 B2 B2 A4 | G8 |] %49
w: pe- na mi-|a.|
V:4
 z8 | z4 G4 | _E2 C2 G2 D2 | _E4 B,2 B2 | F2 F2 B2 c2 | d4 c4 | CC F4 D2 | G2 G4 G2 | G2 _E2 D4 | %9
w: |Vagh'|a- mo- ro- si'au-|gel- li, che|so- vra gli'ar- bu-|scel- li,|ri- no- va- te|gl'an- ti- chi|vostr' a- mo-|
"^b" d2 d2 B3 c | d4 G4- | G4 z2 B2 | B,3 C D2 _E2 | D2 B,2 B4- | B2 G2 z4 | z4 z2 _E2- | %16
w: ri, can- ta- *|* te,|_ can-|ta- * * te|tra bei fio-|* ri,|gloc-|
 E_E E2 C2 F2 | C4 F2 B,2 | _E4 E4 | _E4 E4 | D6 d2 | G2 c2 G4 | C2 c2 A4 | d4 G2 c2 | d4 G2 G2- | %25
w: * ch'e le bion- de|chio- me, che|fur si|dol- ce|nod' a|le mie so-|me, e di|mia Clo- ri'a|l'on- de, in|
 G2 d4 ^c2 | d2 B2 A4 | D2 A2 d4- | d2 ^c2 d2 D2 | A4 D4 | z4 F4 | c8 | F4 D4- | D4 D4 | A8 | %35
w: _ quest' a|ma- te spon-|de, in quest'|_ a ma- te|spon- de,|u-|di-|te l'ar-|* mo-|ni-|
 D4 z2 D2 |"^-natural" D4 F2 F2- | F2 G2 c4 | A8 | A8- | A4 A4 | A8 | D2 D2 D4 | F2 F4 G2 | c4 A4 | %45
w: a, che|puo sol' a|_ dol- cir|la|pe-|* na|mi-|a, che puo|sol' a dol-|cir la|
 B4 A4 | D8- | D8 | G8 |] %49
w: pe- na|mi-||a.|

